;FLAVOR:Marlin
;TIME:3297
;Filament used: 2.43534m
;Layer height: 0.2
;MINX:66.133
;MINY:63.066
;MINZ:0.2
;MAXX:136.304
;MAXY:117.194
;MAXZ:11.2
;Generated with Cura_SteamEngine 5.2.1
M82 ;absolute extrusion mode
M201 X1250 Y1250 Z400 E5000 ; sets maximum accelerations
M203 X180 Y180 Z12 E80 ; sets maximum feedrates
M205 X8.00 Y8.00 Z2.00 E10.00 ; sets the jerk limits
M221 S100 ; reset flow
G90 ; use absolute positioning
M82 ; absolute extrusion mode
M104 S170 ; set extruder temp for bed leveling
M140 S60.0 ; set bed temp
M109 R170 ; wait for extruder temp
M190 S60.0 ; wait for bed temp
G28 ; home all
G29 ; mesh bed leveling
M104 S210.0 ; set extruder temp
G92 E0.0
G1 Y-2 X179 F2400
G1 Z3 F720
M109 S210.0 ; wait for extruder temp
G92 E0.0
G1 X170 F1000
G1 Z0.2 F720
G1 X110 E8 F900
G1 X40 E18 F900
G92 E0.0
M900 K0.2 ; LA
G92 E0
G92 E0
G1 F4200 E-3.2
;LAYER_COUNT:55
;LAYER:0
M107
M204 S1250
M205 X10 Y10
G1 F600 Z0.4
G0 F9000 X69.224 Y65.495 Z0.4
M204 S800
M205 X8 Y8
;TYPE:SKIRT
G1 F600 Z0.2
G1 F2400 E0
G1 F1200 X70.018 Y64.843 E0.03417
G1 X70.921 Y64.329 E0.06873
G1 X71.884 Y63.98 E0.1028
G1 X72.768 Y63.82 E0.13268
G1 X74.558 Y63.694 E0.19236
G1 X77.288 Y63.464 E0.28348
G1 X80.759 Y63.066 E0.39968
G1 X81.661 Y63.071 E0.42969
G1 X82.199 Y63.122 E0.44766
G1 X82.937 Y63.249 E0.47257
G1 X83.684 Y63.433 E0.49815
G1 X85.098 Y63.801 E0.54675
G1 X87.787 Y64.418 E0.63851
G1 X90.452 Y64.951 E0.72891
G1 X93.159 Y65.413 E0.82024
G1 X95.823 Y65.791 E0.90974
G1 X98.544 Y66.099 E1.00081
G1 X101.264 Y66.328 E1.0916
G1 X103.952 Y66.479 E1.18115
G1 X106.721 Y66.556 E1.27328
G1 X109.415 Y66.554 E1.36288
G1 X112.184 Y66.475 E1.45502
G1 X115.573 Y66.277 E1.56793
G1 X116.216 Y66.268 E1.58932
G1 X125.048 Y66.268 E1.88307
G1 X125.917 Y66.284 E1.91198
G1 X126.522 Y66.322 E1.93214
G1 X127.125 Y66.378 E1.95228
G1 X127.703 Y66.466 E1.97173
G1 X128.767 Y66.737 E2.00825
G1 X129.286 Y66.901 E2.02635
G1 X130.52 Y67.428 E2.07098
G1 X131.177 Y67.815 E2.09634
G1 X131.727 Y68.164 E2.118
G1 X132.203 Y68.507 E2.13752
G1 X133.198 Y69.374 E2.18141
G1 X133.684 Y69.924 E2.20582
G1 X134.258 Y70.616 E2.23573
G1 X134.663 Y71.243 E2.26055
G1 X135.031 Y71.863 E2.28453
G1 X135.289 Y72.359 E2.30313
G1 X135.694 Y73.369 E2.33932
G1 X135.872 Y73.9 E2.35795
G1 X136.121 Y74.989 E2.3951
G1 X136.216 Y75.563 E2.41446
G1 X136.3 Y76.9 E2.45901
G1 X136.304 Y101.212 E3.26763
G1 X136.288 Y102.081 E3.29654
G1 X136.25 Y102.686 E3.3167
G1 X136.194 Y103.289 E3.33684
G1 X136.106 Y103.867 E3.35629
G1 X135.784 Y105.131 E3.39967
G1 X135.521 Y105.809 E3.42386
G1 X135.143 Y106.683 E3.45553
G1 X134.784 Y107.297 E3.47919
G1 X134.401 Y107.902 E3.50301
G1 X134.058 Y108.382 E3.52263
G1 X133.208 Y109.352 E3.56552
G1 X132.659 Y109.839 E3.58993
G1 X131.945 Y110.43 E3.62076
G1 X131.37 Y110.802 E3.64354
G1 X130.713 Y111.193 E3.66897
G1 X130.213 Y111.454 E3.68773
G1 X129.203 Y111.858 E3.72391
G1 X128.672 Y112.036 E3.74253
G1 X127.583 Y112.285 E3.77969
G1 X127.017 Y112.379 E3.79877
G1 X125.753 Y112.459 E3.8409
G1 X125.209 Y112.468 E3.85899
G1 X116.262 Y112.468 E4.15657
G1 X115.464 Y112.455 E4.18312
G1 X114.303 Y112.406 E4.22177
G1 X111.519 Y112.327 E4.3144
G1 X108.824 Y112.327 E4.40404
G1 X106.06 Y112.405 E4.496
G1 X103.363 Y112.558 E4.58585
G1 X100.647 Y112.788 E4.67651
G1 X97.937 Y113.096 E4.76722
G1 X95.219 Y113.483 E4.85854
G1 X92.567 Y113.937 E4.94802
G1 X89.889 Y114.474 E5.03887
G1 X87.221 Y115.088 E5.12993
G1 X84.323 Y115.845 E5.22955
G1 X82.603 Y116.324 E5.28893
G1 X81.887 Y116.447 E5.3131
G1 X80.113 Y116.57 E5.37224
G1 X77.344 Y116.807 E5.46467
G1 X74.744 Y117.103 E5.55171
G1 X74.023 Y117.194 E5.57588
G1 X73.084 Y117.193 E5.60711
G1 X72.597 Y117.152 E5.62337
G1 X71.816 Y117.014 E5.64975
G1 X71.3 Y116.873 E5.66754
G1 X70.739 Y116.674 E5.68733
G1 X70.257 Y116.462 E5.70485
G1 X69.38 Y115.976 E5.7382
G1 X68.611 Y115.361 E5.77095
G1 X68.255 Y115.024 E5.78725
G1 X67.745 Y114.451 E5.81277
G1 X67.424 Y114.015 E5.83077
G1 X67.093 Y113.486 E5.85153
G1 X66.814 Y112.943 E5.87183
G1 X66.576 Y112.363 E5.89268
G1 X66.396 Y111.793 E5.91257
G1 X66.257 Y111.181 E5.93344
G1 X66.173 Y110.578 E5.95369
G1 X66.133 Y109.837 E5.97837
G1 X66.147 Y108.977 E6.00698
G1 X67.356 Y70.342 E7.29261
G1 X67.389 Y69.618 E7.31672
G1 X67.457 Y68.953 E7.33895
G1 X67.626 Y68.132 E7.36683
G1 X68.002 Y67.173 E7.40109
G1 X68.541 Y66.281 E7.43575
G1 X69.224 Y65.495 E7.47039
M204 S1250
M205 X10 Y10
G0 F9000 X69.501 Y65.782
M204 S800
M205 X8 Y8
G1 F1200 X70.247 Y65.17 E7.50248
G1 X71.088 Y64.693 E7.53464
G1 X71.987 Y64.367 E7.56645
G1 X72.805 Y64.218 E7.5941
G1 X74.557 Y64.095 E7.65251
G1 X77.331 Y63.862 E7.7451
G1 X80.782 Y63.466 E7.86064
G1 X81.877 Y63.472 E7.89706
G1 X82.858 Y63.641 E7.93017
G1 X83.583 Y63.82 E7.955
G1 X85.013 Y64.192 E8.00415
G1 X87.69 Y64.807 E8.09551
G1 X90.411 Y65.35 E8.18779
G1 X93.067 Y65.804 E8.27741
G1 X95.759 Y66.185 E8.36784
G1 X98.501 Y66.496 E8.45962
G1 X101.241 Y66.727 E8.55108
G1 X103.956 Y66.879 E8.64152
G1 X106.709 Y66.956 E8.73312
G1 X109.427 Y66.954 E8.82352
G1 X112.181 Y66.875 E8.91516
G1 X114.857 Y66.723 E9.00431
G1 X115.578 Y66.677 E9.02834
G1 X116.221 Y66.668 E9.04973
G1 X125.042 Y66.668 E9.34311
G1 X125.748 Y66.678 E9.3666
G1 X126.485 Y66.721 E9.39115
G1 X127.088 Y66.777 E9.41129
G1 X127.616 Y66.857 E9.42906
G1 X128.667 Y67.124 E9.46512
G1 X129.181 Y67.286 E9.48305
G1 X130.34 Y67.787 E9.52504
G1 X130.963 Y68.153 E9.54908
G1 X131.669 Y68.601 E9.57689
G1 X132.249 Y69.074 E9.60178
G1 X132.914 Y69.658 E9.63121
G1 X133.376 Y70.179 E9.65437
G1 X133.938 Y70.857 E9.68367
G1 X134.319 Y71.447 E9.70702
G1 X134.687 Y72.067 E9.731
G1 X134.927 Y72.53 E9.74835
G1 X135.323 Y73.518 E9.78375
G1 X135.486 Y74.006 E9.80086
G1 X135.731 Y75.078 E9.83744
G1 X135.818 Y75.595 E9.85488
G1 X135.9 Y76.91 E9.8987
G1 X135.904 Y101.206 E10.70679
G1 X135.894 Y101.912 E10.73027
G1 X135.851 Y102.649 E10.75483
G1 X135.795 Y103.252 E10.77497
G1 X135.715 Y103.779 E10.7927
G1 X135.405 Y105.001 E10.83463
G1 X135.154 Y105.651 E10.8578
G1 X134.862 Y106.326 E10.88226
G1 X134.614 Y106.818 E10.90059
G1 X134.063 Y107.688 E10.93484
G1 X133.752 Y108.123 E10.95263
G1 X133.051 Y108.923 E10.988
G1 X132.681 Y109.299 E11.00555
G1 X131.855 Y109.985 E11.04126
G1 X131.426 Y110.303 E11.05902
G1 X130.509 Y110.849 E11.09452
G1 X130.042 Y111.091 E11.11201
G1 X129.054 Y111.487 E11.14742
G1 X128.566 Y111.65 E11.16453
G1 X127.494 Y111.895 E11.2011
G1 X127 Y111.978 E11.21776
G1 X125.909 Y112.052 E11.25413
G1 X125.202 Y112.068 E11.27765
G1 X116.268 Y112.068 E11.5748
G1 X115.57 Y112.058 E11.59802
G1 X114.322 Y112.006 E11.63956
G1 X111.53 Y111.927 E11.73246
G1 X108.813 Y111.927 E11.82283
G1 X106.061 Y112.005 E11.9144
G1 X103.342 Y112.159 E12.00498
G1 X100.604 Y112.391 E12.09637
G1 X97.867 Y112.702 E12.18799
G1 X95.172 Y113.086 E12.27853
G1 X92.493 Y113.544 E12.36893
G1 X89.785 Y114.087 E12.46079
G1 X87.135 Y114.697 E12.55123
G1 X84.242 Y115.453 E12.65069
G1 X82.496 Y115.939 E12.71097
G1 X81.859 Y116.048 E12.73246
G1 X80.055 Y116.173 E12.79261
G1 X77.301 Y116.409 E12.88454
G1 X74.694 Y116.706 E12.97181
G1 X73.989 Y116.795 E12.99544
G1 X73.091 Y116.794 E13.02531
G1 X72.564 Y116.749 E13.0429
G1 X71.662 Y116.577 E13.07344
G1 X70.631 Y116.211 E13.10983
G1 X69.609 Y115.648 E13.14864
G1 X68.692 Y114.914 E13.18771
G1 X67.906 Y114.03 E13.22705
G1 X67.432 Y113.273 E13.25676
G1 X67.185 Y112.791 E13.27477
G1 X66.947 Y112.211 E13.29562
G1 X66.786 Y111.705 E13.31328
G1 X66.647 Y111.093 E13.33416
G1 X66.573 Y110.557 E13.35215
G1 X66.533 Y109.823 E13.3766
G1 X66.547 Y108.984 E13.40451
G1 X67.755 Y70.36 E14.68978
G1 X67.788 Y69.636 E14.71389
G1 X67.854 Y69 E14.73515
G1 X68.01 Y68.244 E14.76083
G1 X68.362 Y67.351 E14.79275
G1 X68.862 Y66.52 E14.82501
G1 X69.501 Y65.782 E14.85748
M204 S1250
M205 X10 Y10
G1 F4200 E11.65748
G1 F600 Z0.4
G0 F9000 X77.956 Y87.48 Z0.4
M204 S800
M205 X8 Y8
;TYPE:SUPPORT
G1 F600 Z0.2
G1 F2400 E14.85748
G1 F1200 X84.549 Y87.48 E15.04935
M204 S1250
M205 X10 Y10
G0 F9000 X83.592 Y87.37
M204 S800
M205 X8 Y8
G1 F1200 X83.592 Y111.468 E15.75067
M204 S1250
M205 X10 Y10
G0 F9000 X83.789 Y110.808
M204 S800
M205 X8 Y8
G1 F1200 X78.715 Y110.808 E15.89833
M204 S1250
M205 X10 Y10
G1 F4200 E12.69833
G1 F600 Z0.4
G0 F9000 X79.704 Y112.451 Z0.4
M204 S800
M205 X8 Y8
G1 F600 Z0.2
G1 F2400 E15.89833
G1 F1200 X79.704 Y87.37 E16.62826
M204 S1250
M205 X10 Y10
G1 F4200 E13.42826
G1 F600 Z0.4
G0 F9000 X81.648 Y87.37 Z0.4
M204 S800
M205 X8 Y8
G1 F600 Z0.2
G1 F2400 E16.62826
G1 F1200 X81.648 Y112.939 E17.37238
M204 S1250
M205 X10 Y10
G0 F9000 X82.282 Y112.752
M204 S800
M205 X8 Y8
G1 F1200 X80.224 Y112.752 E17.43227
M204 S1250
M205 X10 Y10
G1 F4200 E14.23227
G1 F600 Z0.4
G0 F9000 X78.625 Y108.864 Z0.4
M204 S800
M205 X8 Y8
G1 F600 Z0.2
G1 F2400 E17.43227
G1 F1200 X83.881 Y108.864 E17.58524
M204 S1250
M205 X10 Y10
G1 F4200 E14.38524
G1 F600 Z0.4
G0 F9000 X83.941 Y106.92 Z0.4
M204 S800
M205 X8 Y8
G1 F600 Z0.2
G1 F2400 E17.58524
G1 F1200 X78.564 Y106.92 E17.74172
M204 S1250
M205 X10 Y10
G1 F4200 E14.54172
G1 F600 Z0.4
G0 F9000 X78.503 Y104.976 Z0.4
M204 S800
M205 X8 Y8
G1 F600 Z0.2
G1 F2400 E17.74172
G1 F1200 X84.002 Y104.976 E17.90176
M204 S1250
M205 X10 Y10
G1 F4200 E14.70176
G1 F600 Z0.4
G0 F9000 X84.063 Y103.032 Z0.4
M204 S800
M205 X8 Y8
G1 F600 Z0.2
G1 F2400 E17.90176
G1 F1200 X78.442 Y103.032 E18.06534
M204 S1250
M205 X10 Y10
G1 F4200 E14.86534
G1 F600 Z0.4
G0 F9000 X78.382 Y101.088 Z0.4
M204 S800
M205 X8 Y8
G1 F600 Z0.2
G1 F2400 E18.06534
G1 F1200 X84.124 Y101.088 E18.23245
M204 S1250
M205 X10 Y10
G1 F4200 E15.03245
G1 F600 Z0.4
G0 F9000 X84.185 Y99.144 Z0.4
M204 S800
M205 X8 Y8
G1 F600 Z0.2
G1 F2400 E18.23245
G1 F1200 X78.321 Y99.144 E18.40311
M204 S1250
M205 X10 Y10
G1 F4200 E15.20311
G1 F600 Z0.4
G0 F9000 X78.26 Y97.2 Z0.4
M204 S800
M205 X8 Y8
G1 F600 Z0.2
G1 F2400 E18.40311
G1 F1200 X84.245 Y97.2 E18.57729
M204 S1250
M205 X10 Y10
G1 F4200 E15.37729
G1 F600 Z0.4
G0 F9000 X84.306 Y95.256 Z0.4
M204 S800
M205 X8 Y8
G1 F600 Z0.2
G1 F2400 E18.57729
G1 F1200 X78.199 Y95.256 E18.75502
M204 S1250
M205 X10 Y10
G1 F4200 E15.55502
G1 F600 Z0.4
G0 F9000 X78.138 Y93.312 Z0.4
M204 S800
M205 X8 Y8
G1 F600 Z0.2
G1 F2400 E18.75502
G1 F1200 X84.367 Y93.312 E18.9363
M204 S1250
M205 X10 Y10
G1 F4200 E15.7363
G1 F600 Z0.4
G0 F9000 X84.428 Y91.368 Z0.4
M204 S800
M205 X8 Y8
G1 F600 Z0.2
G1 F2400 E18.9363
G1 F1200 X78.078 Y91.368 E19.1211
M204 S1250
M205 X10 Y10
G1 F4200 E15.9211
G1 F600 Z0.4
G0 F9000 X78.017 Y89.424 Z0.4
M204 S800
M205 X8 Y8
G1 F600 Z0.2
G1 F2400 E19.1211
G1 F1200 X84.488 Y89.424 E19.30942
M204 S1250
M205 X10 Y10
G1 F4200 E16.10942
G1 F600 Z0.4
;MESH:Link_3_v3.STL
G0 F9000 X73.759 Y71.641 Z0.4
M204 S800
M205 X8 Y8
;TYPE:WALL-INNER
G1 F600 Z0.2
G1 F2400 E19.30942
G1 F1200 X73.146 Y71.634 E19.32981
G1 X72.761 Y71.517 E19.34319
G1 X72.446 Y71.347 E19.3551
G1 F1145.6 X72 Y70.913 E19.37678
G1 F1050.3 X71.636 Y70.247 E19.40562
G1 F1095.9 X71.541 Y70.876 E19.42879
G1 F1200 X70.326 Y109.742 E20.72211
G1 X70.356 Y110.298 E20.74063
G1 X70.473 Y110.819 E20.75839
G1 X70.672 Y111.305 E20.77586
G1 X70.953 Y111.755 E20.7935
G1 X71.306 Y112.15 E20.81112
G1 X71.724 Y112.483 E20.8289
G1 X72.186 Y112.74 E20.84648
G1 X72.685 Y112.914 E20.86406
G1 X73.21 Y113.004 E20.88177
G1 X73.735 Y113.005 E20.89924
G1 X74.262 Y112.914 E20.91702
G1 X74.76 Y112.74 E20.93457
G1 X75.222 Y112.483 E20.95215
G1 X75.639 Y112.15 E20.9699
G1 X75.993 Y111.755 E20.98754
G1 X76.274 Y111.305 E21.00519
G1 X76.473 Y110.819 E21.02266
G1 X76.59 Y110.298 E21.04042
G1 X76.618 Y109.771 E21.05797
G1 X75.4 Y70.696 E22.35824
G1 F1032.3 X75.319 Y70.164 E22.37905
G1 F965.8 X75.03 Y70.775 E22.40698
G1 F1111.1 X74.628 Y71.247 E22.42925
G1 F1200 X74.331 Y71.445 E22.44112
G1 X73.759 Y71.641 E22.46123
M204 S1250
M205 X10 Y10
G1 F4200 E19.26123
G1 F600 Z0.4
G0 F9000 X75.087 Y109.083 Z0.4
M204 S800
M205 X8 Y8
G1 F600 Z0.2
G1 F2400 E22.46123
G1 F1200 X75.256 Y109.641 E22.48062
G1 X75.243 Y110.204 E22.49935
G1 X75.063 Y110.732 E22.51791
G1 X74.719 Y111.166 E22.53633
G1 X74.395 Y111.415 E22.54992
G1 X73.873 Y111.632 E22.56872
G1 X73.252 Y111.661 E22.5894
G1 X72.712 Y111.5 E22.60814
G1 X72.384 Y111.304 E22.62085
G1 X72.016 Y110.924 E22.63844
G1 X71.749 Y110.384 E22.65848
G1 X71.677 Y109.751 E22.67967
G1 X71.799 Y109.22 E22.69779
G1 X72.105 Y108.706 E22.71768
G1 X72.569 Y108.318 E22.7378
G1 X72.751 Y108.225 E22.7446
G1 X73.341 Y108.079 E22.76481
G1 X73.904 Y108.122 E22.78359
G1 X74.235 Y108.244 E22.79533
G1 X74.578 Y108.456 E22.80874
G1 X74.986 Y108.904 E22.82889
G1 X75.087 Y109.083 E22.83573
M204 S1250
M205 X10 Y10
G1 F4200 E19.63573
G1 F600 Z0.4
G0 F9000 X72.877 Y111.134 Z0.4
M204 S800
M205 X8 Y8
;TYPE:WALL-OUTER
G1 F600 Z0.2
G1 F2400 E22.83573
G1 F1200 X72.634 Y110.991 E22.84511
G1 X72.326 Y110.671 E22.85988
G1 X72.117 Y110.222 E22.87635
G1 X72.077 Y109.761 E22.89174
G1 X72.186 Y109.322 E22.90679
G1 X72.437 Y108.93 E22.92227
G1 X72.809 Y108.638 E22.938
G1 X73.257 Y108.487 E22.95372
G1 X73.786 Y108.504 E22.97133
G1 X74.025 Y108.584 E22.97971
G1 X74.368 Y108.796 E22.99312
G1 X74.71 Y109.217 E23.01116
G1 X74.856 Y109.654 E23.02648
G1 X74.856 Y110.093 E23.04109
G1 X74.694 Y110.556 E23.0574
G1 X74.42 Y110.899 E23.072
G1 X74.201 Y111.065 E23.08114
G1 X73.766 Y111.239 E23.09672
G1 X73.287 Y111.257 E23.11267
G1 X72.877 Y111.134 E23.1269
M204 S1250
M205 X10 Y10
G0 F9000 X72.705 Y111.033
G1 F4200 E19.9269
G1 F600 Z0.4
G0 F9000 X69.958 Y110.353 Z0.4
M204 S800
M205 X8 Y8
G1 F600 Z0.2
G1 F2400 E23.1269
G1 F1200 X70.09 Y110.94 E23.14692
G1 X70.315 Y111.488 E23.16662
G1 X70.632 Y111.996 E23.18653
G1 X71.03 Y112.442 E23.20642
G1 X71.5 Y112.817 E23.22641
G1 X72.022 Y113.106 E23.24626
G1 X72.584 Y113.303 E23.26607
G1 X73.176 Y113.404 E23.28604
G1 X73.769 Y113.405 E23.30576
G1 X74.362 Y113.303 E23.32578
G1 X74.924 Y113.106 E23.34558
G1 X75.446 Y112.817 E23.36543
G1 X75.915 Y112.442 E23.3854
G1 X76.314 Y111.996 E23.40531
G1 X76.631 Y111.488 E23.42522
G1 X76.856 Y110.94 E23.44493
G1 X76.988 Y110.353 E23.46494
G1 X77.018 Y109.791 E23.48366
G1 X75.772 Y69.805 E24.81424
G1 X75.725 Y69.409 E24.8275
G1 X75.612 Y69.029 E24.84069
G1 X75.439 Y68.678 E24.85371
G1 X75.209 Y68.363 E24.86668
G1 X74.923 Y68.086 E24.87992
G1 X74.602 Y67.867 E24.89284
G1 X74.245 Y67.704 E24.9059
G1 X73.852 Y67.602 E24.9194
G1 X73.474 Y67.57 E24.93202
G1 X73.084 Y67.603 E24.94504
G1 X72.701 Y67.704 E24.95821
G1 X72.344 Y67.868 E24.97128
G1 X72.022 Y68.086 E24.98421
G1 X71.737 Y68.363 E24.99743
G1 X71.507 Y68.678 E25.0104
G1 X71.332 Y69.033 E25.02357
G1 X71.221 Y69.409 E25.03661
G1 X71.174 Y69.805 E25.04987
G1 X69.926 Y109.746 E26.37896
G1 X69.958 Y110.353 E26.39918
M204 S1250
M205 X10 Y10
G0 F9000 X70.001 Y110.548
G1 F4200 E23.19918
G1 F600 Z0.4
G0 F9000 X72.078 Y69.742 Z0.4
M204 S800
M205 X8 Y8
G1 F600 Z0.2
G1 F2400 E26.39918
G1 F1200 X72.2 Y69.284 E26.41494
G1 X72.441 Y68.924 E26.42935
G1 X72.817 Y68.632 E26.44519
G1 X73.299 Y68.479 E26.462
G1 X73.777 Y68.5 E26.47792
G1 X74.003 Y68.572 E26.48581
G1 X74.403 Y68.822 E26.5015
G1 X74.702 Y69.194 E26.51737
G1 X74.848 Y69.604 E26.53185
G1 X74.856 Y70.099 E26.54831
G1 X74.712 Y70.516 E26.56298
G1 X74.427 Y70.891 E26.57865
G1 X74.223 Y71.05 E26.58725
G1 X73.808 Y71.227 E26.60226
G1 X73.262 Y71.251 E26.62044
G1 X72.877 Y71.134 E26.63382
G1 X72.654 Y71.005 E26.64239
G1 X72.3 Y70.628 E26.65959
G1 X72.113 Y70.195 E26.67528
G1 X72.078 Y69.742 E26.69039
M204 S1250
M205 X10 Y10
G0 F9000 X72.129 Y69.549
G0 X71.638 Y70.236
M204 S800
M205 X8 Y8
;TYPE:WALL-INNER
G1 F907.4 X71.625 Y69.801 E26.70953
